; generated by PrusaSlicer 2.7.4+MacOS-arm64 on 2024-05-28 at 14:58:30 UTC


;
;

;
;

;
;

;
;
; 

; external perimeters extrusion width = 0.45mm
; perimeters extrusion width = 0.45mm
; infill extrusion width = 0.45mm
; solid infill extrusion width = 0.45mm
; top infill extrusion width = 0.40mm
; first layer extrusion width = 0.42mm

; external perimeters extrusion width = 0.45mm
; perimeters extrusion width = 0.45mm
; infill extrusion width = 0.45mm
; solid infill extrusion width = 0.45mm
; top infill extrusion width = 0.40mm
; first layer extrusion width = 0.42mm

; external perimeters extrusion width = 0.45mm
; perimeters extrusion width = 0.45mm
; infill extrusion width = 0.45mm
; solid infill extrusion width = 0.45mm
; top infill extrusion width = 0.40mm
; first layer extrusion width = 0.42mm

; external perimeters extrusion width = 0.45mm
; perimeters extrusion width = 0.45mm
; infill extrusion width = 0.45mm
; solid infill extrusion width = 0.45mm
; top infill extrusion width = 0.40mm
; first layer extrusion width = 0.42mm

M73 P0 R66
M201 X2500 Y2500 Z400 E5000 ; sets maximum accelerations, mm/sec^2
M203 X180 Y180 Z12 E80 ; sets maximum feedrates, mm / sec
M204 P2000 R1250 T2500 ; sets acceleration (P, T) and retract acceleration (R), mm/sec^2
M205 X8.00 Y8.00 Z2.00 E10.00 ; sets the jerk limits, mm/sec
M205 S0 T0 ; sets the minimum extruding and travel feed rate, mm/sec

M486 S0
M486 Ame433 bracket v1
M486 S-1
M486 S1
M486 Ame433 bracket v1
M486 S-1
M486 S2
M486 Ame433 bracket v1
M486 S-1
M486 S3
M486 Ame433 bracket v1
M486 S-1

;TYPE:Custom
M862.3 P "MINI" ; printer model check
G90 ; use absolute coordinates
M83 ; extruder relative mode
M104 S170 ; set extruder temp for bed leveling
M140 S100 ; set bed temp
M109 R170 ; wait for bed leveling temp
M190 S100 ; wait for bed temp
M204 T1250 ; set travel acceleration
G28 ; home all without mesh bed level
G29 ; mesh bed leveling 
M204 T2500 ; restore travel acceleration
M104 S255 ; set extruder temp
G92 E0
G1 Y-2 X179 F2400
G1 Z3 F720
M109 S255 ; wait for extruder temp

; intro line
G1 X170 F1000
G1 Z0.2 F720
G1 X110 E8 F900
G1 X40 E10 F700
M73 P0 R65
G92 E0

M221 S95 ; set flow
G21 ; set units to millimeters
G90 ; use absolute coordinates
M83 ; use relative distances for extrusion
M900 K0.2 ; Filament gcode

M107
;LAYER_CHANGE
;Z:0.2
;HEIGHT:0.2
G1 E-2.7 F4200
G1 Z.4 F720
G1 X62.964 Y60.293 F9000
G1 Z.2 F720
G1 E2.7 F2400
M204 P600
;TYPE:Skirt/Brim
;WIDTH:0.42
G1 F1200
G1 X64.01 Y59.417 E.04278
G1 X64.95 Y59.223 E.03009
G1 X115.05 Y59.223 E1.57085
G1 X116.357 Y59.615 E.04278
G1 X117.233 Y60.66 E.04275
G1 X117.427 Y61.6 E.03009
G1 X117.425 Y84.564 E.72002
G3 X116.818 Y86.828 I-5.964 J-.385 E.07397
G1 X98.052 Y118.346 E1.15013
G3 X94.135 Y120.765 I-4.313 J-2.604 E.14991
G1 X85.865 Y120.765 E.2593
G3 X81.948 Y118.346 I.439 J-5.092 E.14973
G1 X63.248 Y86.946 E1.14589
G3 X62.573 Y84.471 I4.623 J-2.589 E.08124
G1 X62.573 Y61.6 E.7171
G1 X62.947 Y60.35 E.04091
M204 P1000
G1 E-2.7 F4200
G1 X62.947 Y60.35 Z.4 F9000
M486 S3
G1 X65.737 Y62.387
G1 Z.2 F720
G1 E2.7 F2400
M204 P600
;TYPE:Perimeter
;WIDTH:0.419999
G1 F1200
G1 X76.863 Y62.387 E.34885
G1 X76.863 Y67.148 E.14928
G1 X76.863 Y83.957 E.52703
G1 X76.834 Y84.764 E.02532
G3 X76.451 Y85.585 I-2.305 J-.575 E.02858
G3 X75.702 Y86.091 I-1.507 J-1.426 E.02857
G1 X75.263 Y86.204 E.01421
G1 X67.349 Y86.204 E.24814
G1 X66.892 Y86.102 E.01468
G1 X66.369 Y85.796 E.019
G1 X65.976 Y85.334 E.01902
G3 X65.737 Y84.418 I1.968 J-1.003 E.02991
G1 X65.737 Y62.447 E.68888
M204 P1000
G1 X65.36 Y62.01 F9000
M204 P600
;TYPE:External perimeter
G1 F1200
G1 X77.24 Y62.01 E.37249
G1 X77.24 Y67.148 E.1611
G1 X77.24 Y84.447 E.5424
G3 X76.954 Y85.525 I-2.897 J-.193 E.03519
G3 X76.178 Y86.301 I-2.391 J-1.612 E.03462
G3 X75.296 Y86.581 I-1.234 J-2.363 E.02916
G1 X67.308 Y86.581 E.25046
G1 X66.762 Y86.46 E.01753
G3 X65.988 Y85.968 I1.009 J-2.444 E.0289
G1 X65.647 Y85.524 E.01755
G1 X65.434 Y85.011 E.01742
G1 X65.36 Y84.443 E.01796
G1 X65.36 Y62.07 E.70149
M204 P1000
G1 X65.756 Y62.011 F9000
G1 E-2.7 F4200
G1 Z.4 F720
G1 X73.662 Y74.866 F9000
G1 Z.2 F720
G1 E2.7 F2400
M204 P600
;TYPE:Perimeter
G1 F1200
G3 X73.536 Y75.266 I-2.519 J-.573 E.01316
G1 X73.128 Y75.905 E.02377
G1 X72.52 Y76.405 E.02468
G3 X69.984 Y76.35 I-1.221 J-2.184 E.0834
G1 X69.454 Y75.876 E.02229
G1 X69.116 Y75.378 E.01887
G3 X68.865 Y74.361 I2.692 J-1.203 E.03302
G3 X69.324 Y72.875 I2.62 J-.004 E.04951
G1 X69.86 Y72.339 E.02377
G1 X70.342 Y72.06 E.01746
G1 X71.078 Y71.877 E.02378
G3 X73.355 Y72.992 I.202 J2.47 E.08345
G1 X73.654 Y73.688 E.02375
G3 X73.675 Y74.807 I-2.511 J.605 E.03537
M204 P1000
G1 X73.675 Y74.807 F9000
G1 X73.31 Y74.749
M204 P600
;TYPE:External perimeter
G1 F1200
G3 X73.308 Y74.763 I-2.43 J-.445 E.00044
G3 X72.816 Y75.693 I-2.454 J-.702 E.03323
G1 X72.291 Y76.105 E.02092
G1 X71.779 Y76.299 E.01717
G3 X70.518 Y76.206 I-.469 J-2.236 E.04017
G3 X69.679 Y75.57 I1.097 J-2.317 E.03325
G3 X69.24 Y74.32 I1.765 J-1.323 E.04219
G3 X69.439 Y73.416 I2.495 J.076 E.02919
G3 X70.119 Y72.613 I2.246 J1.214 E.03323
G1 X70.566 Y72.376 E.01586
G1 X71.159 Y72.246 E.01903
G3 X72.81 Y72.898 I.114 J2.127 E.05741
G3 X73.304 Y73.828 I-1.959 J1.638 E.03326
G3 X73.32 Y74.689 I-2.424 J.476 E.02714
M204 P1000
G1 X73.404 Y74.298 F9000
G1 E-2.7 F4200
G1 Z.4 F720
G1 X69.74 Y82.508 F9000
G1 Z.2 F720
G1 E2.7 F2400
M204 P600
;TYPE:Perimeter
G1 F1200
G1 X69.398 Y82.172 E.01503
G3 X69.324 Y79.225 I1.947 J-1.523 E.09903
G1 X69.859 Y78.69 E.02372
G1 X70.561 Y78.332 E.02471
G1 X71.107 Y78.222 E.01746
G3 X73.05 Y78.953 I.155 J2.536 E.06705
G1 X73.468 Y79.546 E.02275
G3 X73.542 Y81.601 I-2.247 J1.11 E.06644
G1 X73.13 Y82.253 E.02418
G3 X72.259 Y82.889 I-2.097 J-1.954 E.03402
G1 X71.523 Y83.072 E.02378
G3 X70.456 Y82.935 I-.173 J-2.868 E.03393
G1 X69.796 Y82.562 E.02377
G1 X69.783 Y82.55 E.00055
M204 P1000
G1 X69.783 Y82.55 F9000
G1 X70.096 Y82.314
M204 P600
;TYPE:External perimeter
G1 F1200
G3 X69.99 Y82.239 I1.419 J-2.123 E.00407
G3 X69.439 Y79.766 I1.343 J-1.597 E.08537
G3 X70.119 Y78.963 I2.426 J1.366 E.03319
G1 X70.72 Y78.674 E.02091
G1 X71.27 Y78.595 E.01742
G3 X72.79 Y79.225 I.002 J2.14 E.05295
G1 X73.156 Y79.758 E.02027
G3 X73.162 Y81.526 I-1.921 J.891 E.05719
G1 X72.816 Y82.043 E.01951
G1 X72.439 Y82.367 E.01559
G3 X71.442 Y82.704 I-1.299 J-2.198 E.03324
G1 X70.947 Y82.68 E.01554
G3 X70.147 Y82.347 I.568 J-2.489 E.0273
M204 P1000
G1 X70.45 Y82.607 F9000
G1 E-2.7 F4200
G1 Z.4 F720
G1 X76.693 Y63.327 F9000
G1 Z.2 F720
G1 E2.7 F2400
M204 P600
;TYPE:Solid infill
;WIDTH:0.423887
G1 F1200
G1 X76.092 Y62.726 E.02692
G1 X75.554 Y62.726 E.01704
G1 X76.524 Y63.696 E.04345
G1 X76.524 Y64.235 E.01707
G1 X75.015 Y62.726 E.0676
G1 X74.476 Y62.726 E.01707
G1 X76.524 Y64.774 E.09175
G1 X76.524 Y65.313 E.01707
G1 X73.937 Y62.726 E.11589
G1 X73.399 Y62.726 E.01704
G1 X76.524 Y65.851 E.14
G1 X76.524 Y66.39 E.01707
G1 X72.86 Y62.726 E.16414
G1 X72.321 Y62.726 E.01707
G1 X76.524 Y66.929 E.18829
G1 X76.524 Y67.468 E.01707
G1 X71.782 Y62.726 E.21244
G1 X71.243 Y62.726 E.01707
G1 X76.524 Y68.007 E.23658
M73 P1 R65
G1 X76.524 Y68.545 E.01704
G1 X70.705 Y62.726 E.26068
G1 X70.166 Y62.726 E.01707
G1 X76.524 Y69.084 E.28483
G1 X76.524 Y69.623 E.01707
G1 X69.627 Y62.726 E.30898
G1 X69.088 Y62.726 E.01707
G1 X76.524 Y70.162 E.33312
G1 X76.524 Y70.7 E.01704
G1 X68.55 Y62.726 E.35723
G1 X68.011 Y62.726 E.01707
G1 X76.524 Y71.239 E.38137
G1 X76.524 Y71.778 E.01707
G1 X67.472 Y62.726 E.40552
G1 X66.933 Y62.726 E.01707
G1 X76.524 Y72.317 E.42967
G1 X76.524 Y72.855 E.01704
G1 X66.395 Y62.726 E.45377
G1 X66.076 Y62.726 E.01011
G1 X66.076 Y62.947 E.007
G1 X76.524 Y73.394 E.46804
G1 X76.524 Y73.933 E.01707
G1 X66.076 Y63.486 E.46804
G1 X66.076 Y64.025 E.01707
G1 X76.524 Y74.472 E.46804
G1 X76.524 Y75.011 E.01707
G1 X66.076 Y64.563 E.46806
G1 X66.076 Y65.102 E.01707
G1 X76.524 Y75.549 E.46804
G1 X76.524 Y76.088 E.01707
G1 X73.951 Y73.516 E.11524
G2 X73.375 Y72.458 I-2.752 J.812 E.03845
G2 X72.086 Y71.65 I-2.002 J1.763 E.04887
G1 X66.076 Y65.641 E.26922
G1 X66.076 Y66.18 E.01707
G1 X71.439 Y71.542 E.24023
G2 X70.924 Y71.566 I-.194 J1.406 E.01642
G1 X66.076 Y66.718 E.21718
G1 X66.076 Y67.257 E.01707
G1 X70.481 Y71.662 E.19734
G2 X70.09 Y71.81 I.288 J1.347 E.01329
G1 X66.076 Y67.796 E.17982
G1 X66.076 Y68.335 E.01707
G1 X69.747 Y72.005 E.16443
G1 X69.457 Y72.254 E.01211
G1 X66.076 Y68.874 E.15144
G1 X66.076 Y69.412 E.01704
G1 X69.18 Y72.516 E.13906
G2 X68.955 Y72.83 I1.306 J1.172 E.01226
G1 X66.076 Y69.951 E.12898
G1 X66.076 Y70.49 E.01707
G1 X68.764 Y73.177 E.1204
G1 X68.624 Y73.576 E.01339
G1 X66.076 Y71.029 E.11412
G1 X66.076 Y71.567 E.01704
G1 X68.545 Y74.036 E.11061
G2 X68.548 Y74.577 I1.751 J.264 E.01721
G1 X65.907 Y71.936 E.11831
M204 P1000
G1 E-2.7 F4200
G1 X65.907 Y71.936 Z.4 F9000
G1 X73.878 Y73.981
G1 Z.2 F720
G1 E2.7 F2400
M204 P600
G1 F1200
G1 X76.524 Y76.627 E.11854
G1 X76.524 Y77.166 E.01707
G1 X74.041 Y74.683 E.11124
G3 X73.939 Y75.12 I-1.423 J-.101 E.01427
G1 X76.524 Y77.704 E.11578
G1 X76.524 Y78.243 E.01707
G1 X73.792 Y75.511 E.12239
G1 X73.579 Y75.838 E.01236
G1 X76.524 Y78.782 E.13191
G1 X76.524 Y79.321 E.01707
G1 X73.358 Y76.155 E.14183
G3 X73.069 Y76.405 I-.98 J-.838 E.01215
G1 X76.524 Y79.859 E.15476
G1 X76.524 Y80.398 E.01707
G1 X72.767 Y76.642 E.16829
G3 X72.419 Y76.833 I-.812 J-1.071 E.01262
G1 X76.524 Y80.937 E.18388
G1 X76.524 Y81.476 E.01707
G1 X72.025 Y76.977 E.20155
G1 X71.568 Y77.059 E.01471
G1 X76.524 Y82.015 E.22202
G1 X76.524 Y82.553 E.01704
G1 X74.004 Y80.034 E.11287
G1 X74.073 Y80.642 E.01938
G1 X76.524 Y83.092 E.10978
G1 X76.524 Y83.631 E.01707
G1 X74.029 Y81.136 E.11177
G1 X73.912 Y81.558 E.01387
G1 X76.524 Y84.17 E.11701
G1 X76.5 Y84.685 E.01633
G1 X73.751 Y81.935 E.12317
G1 X73.535 Y82.258 E.01231
G1 X76.366 Y85.09 E.12685
G3 X76.147 Y85.409 I-1.058 J-.491 E.01231
G1 X73.306 Y82.569 E.12725
G1 X73.019 Y82.82 E.01208
G1 X75.853 Y85.654 E.12696
G1 X75.477 Y85.816 E.01297
G1 X72.7 Y83.04 E.12438
G1 X72.34 Y83.219 E.01274
G1 X74.986 Y85.864 E.11852
G1 X74.447 Y85.864 E.01707
G1 X71.916 Y83.333 E.11339
G1 X71.464 Y83.42 E.01458
G1 X73.908 Y85.864 E.10949
G1 X73.37 Y85.864 E.01704
G1 X70.678 Y83.173 E.12058
M204 P1000
G1 E-2.7 F4200
G1 X70.678 Y83.173 Z.4 F9000
G1 X72.165 Y78.195
G1 Z.2 F720
G1 E2.7 F2400
M204 P600
G1 F1200
G1 X70.832 Y76.862 E.05972
M204 P1000
G1 X70.832 Y76.862 F9000
G1 X71.494 Y78.063
M204 P600
G1 F1200
G1 X70.332 Y76.902 E.05203
G3 X69.635 Y76.515 I1.36 J-3.265 E.02531
G3 X69.039 Y75.909 I2.979 J-3.526 E.02696
G3 X68.713 Y75.281 I2.019 J-1.449 E.02249
G1 X66.076 Y72.645 E.11811
G1 X66.076 Y73.184 E.01707
G1 X70.818 Y77.925 E.21241
G2 X70.391 Y78.037 I.159 J1.479 E.01404
G1 X66.076 Y73.722 E.19331
G1 X66.076 Y74.261 E.01707
G1 X70.023 Y78.208 E.17682
G2 X69.68 Y78.403 I.462 J1.215 E.01255
G1 X66.076 Y74.8 E.16143
G1 X66.076 Y75.339 E.01707
G1 X69.398 Y78.66 E.1488
G1 X69.129 Y78.93 E.01207
G1 X66.076 Y75.878 E.13675
G1 X66.076 Y76.416 E.01704
G1 X68.912 Y79.252 E.12705
G2 X68.731 Y79.609 I1.414 J.941 E.01271
G1 X66.076 Y76.955 E.11892
G1 X66.076 Y77.494 E.01707
G1 X68.6 Y80.017 E.11305
G1 X68.534 Y80.49 E.01513
G1 X66.076 Y78.033 E.11009
G1 X66.076 Y78.571 E.01704
G1 X68.776 Y81.271 E.12096
M204 P1000
G1 E-2.7 F4200
G1 X68.776 Y81.271 Z.4 F9000
G1 X65.907 Y78.94
G1 Z.2 F720
G1 E2.7 F2400
M204 P600
G1 F1200
G1 X72.831 Y85.864 E.31019
G1 X72.292 Y85.864 E.01707
G1 X66.076 Y79.649 E.27845
G1 X66.076 Y80.188 E.01707
G1 X71.753 Y85.864 E.2543
G1 X71.214 Y85.864 E.01707
G1 X66.076 Y80.726 E.23018
G1 X66.076 Y81.265 E.01707
G1 X70.676 Y85.864 E.20605
G1 X70.137 Y85.864 E.01707
G1 X66.076 Y81.804 E.18191
G1 X66.076 Y82.343 E.01707
G1 X69.598 Y85.864 E.15776
G1 X69.059 Y85.864 E.01707
G1 X66.076 Y82.882 E.13361
G1 X66.076 Y83.42 E.01704
G1 X68.521 Y85.864 E.10951
G1 X67.982 Y85.864 E.01707
G1 X66.076 Y83.959 E.08536
G1 X66.092 Y84.513 E.01756
G1 X67.443 Y85.864 E.06052
G3 X66.516 Y85.476 I.091 J-1.517 E.03244
G1 X66.009 Y84.969 E.02271
M204 P1000
G1 E-2.7 F4200
G1 Z.4 F720
M486 S-1
M486 S1
G1 X84.437 Y62.387 F9000
G1 Z.2 F720
G1 E2.7 F2400
M204 P600
;TYPE:Perimeter
;WIDTH:0.419999
G1 F1200
G1 X95.563 Y62.387 E.34885
G1 X95.563 Y67.148 E.14928
M73 P1 R64
G1 X95.563 Y83.957 E.52703
G1 X95.534 Y84.764 E.02532
G3 X95.151 Y85.585 I-2.305 J-.575 E.02858
G3 X94.402 Y86.091 I-1.507 J-1.426 E.02857
G1 X93.963 Y86.204 E.01421
G1 X86.049 Y86.204 E.24814
G1 X85.592 Y86.102 E.01468
G1 X85.069 Y85.796 E.019
G1 X84.676 Y85.334 E.01902
G3 X84.437 Y84.418 I1.968 J-1.003 E.02991
G1 X84.437 Y62.447 E.68888
M204 P1000
G1 X84.06 Y62.01 F9000
M204 P600
;TYPE:External perimeter
G1 F1200
G1 X95.94 Y62.01 E.37249
G1 X95.94 Y67.148 E.1611
G1 X95.94 Y84.447 E.5424
G3 X95.654 Y85.525 I-2.897 J-.193 E.03519
G3 X94.878 Y86.301 I-2.391 J-1.612 E.03462
G3 X93.996 Y86.581 I-1.234 J-2.363 E.02916
G1 X86.008 Y86.581 E.25046
G1 X85.462 Y86.46 E.01753
G3 X84.688 Y85.968 I1.009 J-2.444 E.0289
G1 X84.347 Y85.524 E.01755
G1 X84.134 Y85.011 E.01742
G1 X84.06 Y84.443 E.01796
G1 X84.06 Y62.07 E.70149
M204 P1000
G1 X84.456 Y62.011 F9000
G1 E-2.7 F4200
G1 Z.4 F720
G1 X92.362 Y74.866 F9000
G1 Z.2 F720
G1 E2.7 F2400
M204 P600
;TYPE:Perimeter
G1 F1200
G3 X92.236 Y75.266 I-2.519 J-.573 E.01316
G1 X91.828 Y75.905 E.02377
G1 X91.22 Y76.405 E.02468
G3 X88.684 Y76.35 I-1.221 J-2.184 E.0834
G1 X88.154 Y75.876 E.02229
G1 X87.816 Y75.378 E.01887
G3 X87.565 Y74.361 I2.692 J-1.203 E.03302
G3 X88.024 Y72.875 I2.62 J-.004 E.04951
G1 X88.56 Y72.339 E.02377
G1 X89.042 Y72.06 E.01746
G1 X89.778 Y71.877 E.02378
G3 X92.055 Y72.992 I.202 J2.47 E.08345
G1 X92.354 Y73.688 E.02375
G3 X92.375 Y74.807 I-2.511 J.605 E.03537
M204 P1000
G1 X92.375 Y74.807 F9000
G1 X92.01 Y74.749
M204 P600
;TYPE:External perimeter
G1 F1200
G3 X92.008 Y74.763 I-2.43 J-.445 E.00044
G3 X91.516 Y75.693 I-2.454 J-.702 E.03323
G1 X90.991 Y76.105 E.02092
G1 X90.479 Y76.299 E.01717
G3 X89.218 Y76.206 I-.469 J-2.236 E.04017
G3 X88.379 Y75.57 I1.097 J-2.317 E.03325
G3 X87.94 Y74.32 I1.765 J-1.323 E.04219
G3 X88.139 Y73.416 I2.495 J.076 E.02919
G3 X88.819 Y72.613 I2.246 J1.214 E.03323
G1 X89.266 Y72.376 E.01586
G1 X89.859 Y72.246 E.01903
G3 X91.51 Y72.898 I.114 J2.127 E.05741
G3 X92.004 Y73.828 I-1.959 J1.638 E.03326
G3 X92.02 Y74.689 I-2.424 J.476 E.02714
M204 P1000
G1 X92.104 Y74.298 F9000
G1 E-2.7 F4200
G1 Z.4 F720
G1 X88.44 Y82.508 F9000
G1 Z.2 F720
G1 E2.7 F2400
M204 P600
;TYPE:Perimeter
G1 F1200
G1 X88.098 Y82.172 E.01503
G3 X88.024 Y79.225 I1.947 J-1.523 E.09903
G1 X88.559 Y78.69 E.02372
G1 X89.261 Y78.332 E.02471
G1 X89.807 Y78.222 E.01746
G3 X91.75 Y78.953 I.155 J2.536 E.06705
G1 X92.168 Y79.546 E.02275
G3 X92.242 Y81.601 I-2.247 J1.11 E.06644
G1 X91.83 Y82.253 E.02418
G3 X90.959 Y82.889 I-2.097 J-1.954 E.03402
G1 X90.223 Y83.072 E.02378
G3 X89.156 Y82.935 I-.173 J-2.868 E.03393
G1 X88.496 Y82.562 E.02377
G1 X88.483 Y82.55 E.00055
M204 P1000
G1 X88.483 Y82.55 F9000
G1 X88.796 Y82.314
M204 P600
;TYPE:External perimeter
G1 F1200
G3 X88.69 Y82.239 I1.419 J-2.123 E.00407
G3 X88.139 Y79.766 I1.343 J-1.597 E.08537
G3 X88.819 Y78.963 I2.426 J1.366 E.03319
G1 X89.42 Y78.674 E.02091
G1 X89.97 Y78.595 E.01742
G3 X91.49 Y79.225 I.002 J2.14 E.05295
G1 X91.856 Y79.758 E.02027
G3 X91.862 Y81.526 I-1.921 J.891 E.05719
G1 X91.516 Y82.043 E.01951
G1 X91.139 Y82.367 E.01559
G3 X90.142 Y82.704 I-1.299 J-2.198 E.03324
G1 X89.647 Y82.68 E.01554
G3 X88.847 Y82.347 I.568 J-2.489 E.0273
M204 P1000
G1 X89.15 Y82.607 F9000
G1 E-2.7 F4200
G1 Z.4 F720
G1 X95.393 Y63.327 F9000
G1 Z.2 F720
M73 P2 R64
G1 E2.7 F2400
M204 P600
;TYPE:Solid infill
;WIDTH:0.423887
G1 F1200
G1 X94.792 Y62.726 E.02692
G1 X94.254 Y62.726 E.01704
G1 X95.224 Y63.696 E.04345
G1 X95.224 Y64.235 E.01707
G1 X93.715 Y62.726 E.0676
G1 X93.176 Y62.726 E.01707
G1 X95.224 Y64.774 E.09175
G1 X95.224 Y65.313 E.01707
G1 X92.637 Y62.726 E.11589
G1 X92.099 Y62.726 E.01704
G1 X95.224 Y65.851 E.14
G1 X95.224 Y66.39 E.01707
G1 X91.56 Y62.726 E.16414
G1 X91.021 Y62.726 E.01707
G1 X95.224 Y66.929 E.18829
G1 X95.224 Y67.468 E.01707
G1 X90.482 Y62.726 E.21244
G1 X89.943 Y62.726 E.01707
G1 X95.224 Y68.007 E.23658
G1 X95.224 Y68.545 E.01704
